apps/reserve.mento.org/public/tokens/sUSDS.svg

<svg width="346" height="347" viewBox="0 0 346 347" fill="none" xmlns="http://www.w3.org/2000/svg">
<circle cx="173" cy="173.728" r="173" fill="url(#paint0_radial_1_9)"/>
<path d="M106.836 219.209H82.2169C84.2266 257.645 116.382 291.057 173.409 291.057C230.184 291.057 266.359 259.906 266.359 219.711C266.359 143.341 151.05 147.612 151.05 103.398C151.05 91.0882 160.345 76.5177 181.95 76.5177C206.067 76.5177 234.454 95.3589 236.464 119.476H260.832C258.32 80.5371 220.386 53.4057 172.153 53.4057C122.16 53.4057 84.4779 82.5469 84.4779 123.746C84.4779 202.377 199.786 192.077 199.786 240.562C199.786 255.635 190.491 268.196 167.128 268.196C137.987 268.196 108.595 247.848 106.836 219.209ZM127.436 109.176C127.436 168.965 241.74 157.158 241.74 220.967C241.74 240.06 229.179 256.891 214.106 261.162C219.381 256.138 223.401 245.084 223.401 234.533C223.401 175.497 108.846 183.536 108.846 122.993C108.846 102.644 121.909 86.3151 138.238 81.2908C131.958 88.8273 127.436 98.6248 127.436 109.176Z" fill="white"/>
<defs>
<radialGradient id="paint0_radial_1_9" cx="0" cy="0" r="1" gradientUnits="userSpaceOnUse" gradientTransform="translate(173 539.624) rotate(-90) scale(538.897)">
<stop stop-color="#FFEF79"/>
<stop offset="1" stop-color="#00C2A1"/>
</radialGradient>
</defs>
</svg>

<svg xmlns="http://www.w3.org/2000/svg" width="346" height="347" fill="none" viewBox="0 0 346 347"><circle cx="173" cy="173.728" r="173" fill="url(#a)"/><path fill="#fff" d="M106.836 219.209h-24.62c2.01 38.436 34.166 71.848 91.193 71.848 56.775 0 92.95-31.151 92.95-71.346 0-76.37-115.309-72.099-115.309-116.313 0-12.31 9.295-26.88 30.9-26.88 24.117 0 52.504 18.84 54.514 42.958h24.368c-2.512-38.939-40.446-66.07-88.679-66.07-49.993 0-87.675 29.14-87.675 70.34 0 78.631 115.308 68.331 115.308 116.816 0 15.073-9.295 27.634-32.658 27.634-29.141 0-58.533-20.348-60.292-48.987m20.6-110.033c0 59.789 114.304 47.982 114.304 111.791 0 19.093-12.561 35.924-27.634 40.195 5.275-5.024 9.295-16.078 9.295-26.629 0-59.036-114.555-50.997-114.555-111.54 0-20.349 13.063-36.678 29.392-41.702-6.28 7.536-10.802 17.334-10.802 27.885"/><defs><radialGradient id="a" cx="0" cy="0" r="1" gradientTransform="matrix(0 -538.897 538.897 0 173 539.624)" gradientUnits="userSpaceOnUse"><stop stop-color="#ffef79"/><stop offset="1" stop-color="#00c2a1"/></radialGradient></defs></svg>
